icons/wifi-fill.svg

<svg viewBox="0 0 24 24" fill="currentColor" xmlns="http://www.w3.org/2000/svg">
    <path d="M0.689453 6.99659C3.78027 4.49704 7.71526 3 11.9999 3C16.2845 3 20.2195 4.49704 23.3104 6.99659L21.4253 9.33049C18.8496 7.24753 15.5704 6 11.9999 6C8.42937 6 5.15021 7.24753 2.57453 9.33049L0.689453 6.99659ZM3.83124 10.8864C6.0635 9.08119 8.90544 8 11.9999 8C15.0944 8 17.9363 9.08119 20.1686 10.8864L18.2835 13.2203C16.5664 11.8317 14.3803 11 11.9999 11C9.61954 11 7.43344 11.8317 5.71632 13.2203L3.83124 10.8864ZM6.97304 14.7763C8.34673 13.6653 10.0956 13 11.9999 13C13.9042 13 15.6531 13.6653 17.0268 14.7763L15.1417 17.1102C14.2831 16.4158 13.1901 16 11.9999 16C10.8097 16 9.71667 16.4158 8.85811 17.1102L6.97304 14.7763ZM10.1148 18.6661C10.63 18.2495 11.2858 18 11.9999 18C12.714 18 13.3698 18.2495 13.885 18.6661L11.9999 21L10.1148 18.6661Z"/>
</svg>

<svg xmlns="http://www.w3.org/2000/svg" viewBox="0 0 24 24">
    <g>
        <path fill="none" d="M0 0h24v24H0z"/>
        <path d="M.69 6.997A17.925 17.925 0 0 1 12 3c4.285 0 8.22 1.497 11.31 3.997L21.425 9.33A14.937 14.937 0 0 0 12 6C8.43 6 5.15 7.248 2.575 9.33L.69 6.997zm3.141 3.89A12.946 12.946 0 0 1 12 8c3.094 0 5.936 1.081 8.169 2.886l-1.885 2.334A9.958 9.958 0 0 0 12 11c-2.38 0-4.566.832-6.284 2.22l-1.885-2.334zm3.142 3.89A7.967 7.967 0 0 1 12 13c1.904 0 3.653.665 5.027 1.776l-1.885 2.334A4.98 4.98 0 0 0 12 16a4.98 4.98 0 0 0-3.142 1.11l-1.885-2.334zm3.142 3.89A2.987 2.987 0 0 1 12 18c.714 0 1.37.25 1.885.666L12 21l-1.885-2.334z"/>
    </g>
</svg>
